**kern	**silbe
*ICvox	*
*G:	*
*M4/4	*
*clefG2	*
r;	.
r;	.
=1	=1
8r	.
8b-	My
8b-	ba-
8b-	-by
8b-	whis-
8a	-pers
8g	in
8d	my
=2	=2
8e	ear
8d	_
4r	.
4r	.
8r	.
8[g	Mmm
=3	=3
2.g]	_
8g	Sweet
8[e	no-
=4	=4
8e]	_
4.d	-thin's
2r	.
=5	=5
8r	.
8b-	He
8b-	knows
8b-	the
8b-	things
8b-	I
8b-	like
8e	to
=6	=6
4d	hear
4r	.
4r	.
8r	.
8[g	Mmm
=7	=7
2.g]	_
8g	Sweet
8[e	no-
=8	=8
8e]	_
4.d	-thin's
2r	.
=9	=9
1r	.
=10	=10
8e	Things
8g	he
8a	woul-
8g	-dn't
4b-	tell
4r	.
=11	=11
8r	.
8g	No-
8a	-bo-
8b-	-dy
4g	else
4r	.
=12	=12
1r	.
=13	=13
2r	.
4r	.
8e	Sweet
8[e	no-
=14	=14
8e]	_
8d	-thin's
4r	.
4r	.
8r	.
8[g	Mmm
=15	=15
2.g]	_
8e	Sweet
8[e	no-
=16	=16
8e]	_
4.d	-thin's
2r	.
=17	=17
8r	.
8b-	We
8b-	walk
8b-	a-
4b-	-long
8g	hand
8d	in
=18	=18
4d	hand
4r	.
4r	.
8r	.
8[g	Mmm
=19	=19
2.g]	_
8e	Sweet
8[e	no-
=20	=20
8e]	_
4.d	-thin's
2r	.
=21	=21
8r	.
4b-	Yeah,
8b-	we
4b-	both
8g	un-
8d	-der-
=22	=22
4d	-stand
4r	.
4r	.
8r	.
8[g	Mmm
=23	=23
2.g]	_
8e	Sweet
8[e	no-
=24	=24
8e]	_
4.d	-thin's
2r	.
=25	=25
1r	.
=26	=26
8e	Sit-
8g	-tin'
8a	in
8[b-	t'class-
8b-]	_
8g	-room
8a	trying
8g	to
=27	=27
8b-	read
4b-	my
8g	book
2r	.
=28	=28
1r	.
=29	=29
2r	.
4r	.
8e	Sweet
8[e	no-
=30	=30
8e]	_
4.d	-thin's
4r	.
8r	.
8[g	Mmm
=31	=31
2.g]	_
8e	Sweet
8[e	no-
=32	=32
8e]	_
4.d	-thin's
2r	.
=33	=33
1r	.
=34	=34
1r	.
=35	=35
1r	.
=36	=36
1r	.
=37	=37
1r	.
=38	=38
1r	.
=39	=39
1r	.
=40	=40
1r	.
=41	=41
1r	.
=42	=42
1r	.
=43	=43
1r	.
=44	=44
1r	.
=45	=45
1r	.
=46	=46
1r	.
=47	=47
1r	.
=48	=48
1r	.
=49	=49
8r	.
8b-	Ah,
8b-	sit-
8b-	-tin
8b-	on
8b-	my
4b-	front
=50	=50
4d	porch
4r	.
4r	.
8r	.
8[g	Mmm
=51	=51
2.g]	_
8e	Sweet
8[e	no-
=52	=52
8e]	_
4.d	-thin's
2r	.
=53	=53
8r	.
8b-	Well,
8b-	do
8b-	I
8b-	love
8b-	you?
4b	Of
=54	=54
4d	course
4r	.
4r	.
8r	.
8[g	Mmm
=55	=55
2.g]	_
8e	Sweet
8[e	no-
=56	=56
8e]	_
4.d	-thin's
2r	.
=57	=57
1r	.
=58	=58
8e	Ma-
8g	-ma
8a	turned
8[b-	on
4b-]	_
8r	.
8g	the
=59	=59
8b-	front
4b-	porch
8g	light
8r	.
8r	.
4r	.
=60	=60
1r	.
=61	=61
2r	.
4r	.
8e	Sweet
8[e	no-
=62	=62
8e]	_
4.d	-thin's
4r	.
8r	.
8[g	Mmm
=63	=63
2.g]	_
8e	Sweet
8[e	no-
=64	=64
8e]	_
4.d	-thin's
2r	.
=65	=65
2r	.
4r	.
8e	Sweet
8[e	no-
=66	=66
8e]	_
4.d	-thin's
4r	.
8r	.
8[g	Mmm
=67	=67
2.g]	_
8e	Sweet
8[e	no-
=68	=68
8e]	_
4.d	-thin's
2r	.
=69	=69
*M2/4	*
4r	.
4r	.
=70	=70
*M4/4	*
1r	.
=71	=71
1r	.
r;	.
r;	.
*-	*-
!!!ENC: Nathaniel Condit-Schultz